SVG_Azure_Grouped/Data/SQL Server.svg

<?xml version="1.0" encoding="UTF-8" standalone="no"?>
<!-- Generated by Microsoft Visio, SVG Export SQL Server.svg Page-1 -->

<svg
   xmlns:dc="http://purl.org/dc/elements/1.1/"
   xmlns:cc="http://creativecommons.org/ns#"
   xmlns:rdf="http://www.w3.org/1999/02/22-rdf-syntax-ns#"
   xmlns:svg="http://www.w3.org/2000/svg"
   xmlns="http://www.w3.org/2000/svg"
   xmlns:sodipodi="http://sodipodi.sourceforge.net/DTD/sodipodi-0.dtd"
   xmlns:inkscape="http://www.inkscape.org/namespaces/inkscape"
   width="0.78739846in"
   height="0.78747487in"
   viewBox="0 0 56.692597 56.698501"
   xml:space="preserve"
   class="st7"
   version="1.1"
   id="svg60"
   sodipodi:docname="SQL Server.svg"
   style="font-size:12px;overflow:visible;color-interpolation-filters:sRGB;fill:none;fill-rule:evenodd;stroke-linecap:square;stroke-miterlimit:3"
   inkscape:version="0.92.5 (2060ec1f9f, 2020-04-08)"><metadata
   id="metadata64"><rdf:RDF><cc:Work
       rdf:about=""><dc:format>image/svg+xml</dc:format><dc:type
         rdf:resource="http://purl.org/dc/dcmitype/StillImage" /></cc:Work></rdf:RDF></metadata><sodipodi:namedview
   pagecolor="#ffffff"
   bordercolor="#666666"
   borderopacity="1"
   objecttolerance="10"
   gridtolerance="10"
   guidetolerance="10"
   inkscape:pageopacity="0"
   inkscape:pageshadow="2"
   inkscape:window-width="640"
   inkscape:window-height="480"
   id="namedview62"
   showgrid="false"
   inkscape:zoom="1.4193119"
   inkscape:cx="37.795128"
   inkscape:cy="37.786193"
   inkscape:window-x="0"
   inkscape:window-y="0"
   inkscape:window-maximized="0"
   inkscape:current-layer="svg60" />
	<style
   type="text/css"
   id="style2">
	<![CDATA[
		.st1 {fill:url(#grad0-6);stroke:none;stroke-linecap:butt;stroke-width:34}
		.st2 {fill:#e8e8e8;stroke:none;stroke-linecap:butt;stroke-width:34}
		.st3 {fill:#50e6ff;stroke:none;stroke-linecap:butt;stroke-width:34}
		.st4 {fill:#198ab3;stroke:none;stroke-linecap:butt;stroke-width:34}
		.st5 {fill:#f2f2f2;stroke:none;stroke-linecap:butt;stroke-width:34}
		.st6 {fill:#949494;stroke:none;stroke-linecap:butt;stroke-width:34}
		.st7 {fill:none;fill-rule:evenodd;font-size:12px;overflow:visible;stroke-linecap:square;stroke-miterlimit:3}
	]]>
	</style>

	<defs
   id="Patterns_And_Gradients">
		<linearGradient
   id="grad0-6"
   x1="0"
   y1="71.320041"
   x2="45.052094"
   y2="71.320041"
   gradientTransform="scale(0.93314197,1.0716483)"
   gradientUnits="userSpaceOnUse">
			<stop
   offset="0"
   stop-color="#005ba1"
   stop-opacity="1"
   id="stop4" />
			<stop
   offset="0.07"
   stop-color="#0060a9"
   stop-opacity="1"
   id="stop6" />
			<stop
   offset="0.36"
   stop-color="#0071c8"
   stop-opacity="1"
   id="stop8" />
			<stop
   offset="0.52"
   stop-color="#0078d4"
   stop-opacity="1"
   id="stop10" />
			<stop
   offset="0.64"
   stop-color="#0074cd"
   stop-opacity="1"
   id="stop12" />
			<stop
   offset="0.82"
   stop-color="#006abb"
   stop-opacity="1"
   id="stop14" />
			<stop
   offset="1"
   stop-color="#005ba1"
   stop-opacity="1"
   id="stop16" />
		</linearGradient>
	</defs>
	<g
   id="g58"
   transform="translate(-34.000441,-33.9958)">
		<title
   id="title20">Page-1</title>
		<g
   id="group18884-1"
   transform="translate(34,-34.0157)">
			<title
   id="title22">SQL Server.18884</title>
			<g
   id="group18885-2">
				<title
   id="title24">Sheet.18885</title>
				<g
   id="shape18886-3"
   transform="translate(0,-0.765221)">
					<title
   id="title26">Sheet.18886</title>
					<path
   d="M 21.02,84.09 C 9.42,84.09 0,80.76 0,76.43 v 40.63 c 0,4.19 9.25,7.58 20.72,7.65 h 0.3 c 11.6,0 21.02,-3.33 21.02,-7.65 V 76.43 c 0,4.23 -9.42,7.66 -21.02,7.66 z"
   class="st1"
   id="path28"
   inkscape:connector-curvature="0"
   style="fill:url(#grad0-6);stroke:none;stroke-width:34;stroke-linecap:butt" />
				</g>
				<g
   id="shape18887-7"
   transform="translate(0,-41.3885)">
					<title
   id="title31">Sheet.18887</title>
					<path
   d="m 42.04,117.06 c 0,4.22 -9.42,7.65 -21.02,7.65 -11.6,0 -21.02,-3.43 -21.02,-7.65 0,-4.23 9.42,-7.66 21.02,-7.66 11.6,0 21.02,3.33 21.02,7.66 z"
   class="st2"
   id="path33"
   inkscape:connector-curvature="0"
   style="fill:#e8e8e8;stroke:none;stroke-width:34;stroke-linecap:butt" />
				</g>
				<g
   id="shape18888-9"
   transform="translate(4.97306,-44.8153)">
					<title
   id="title36">Sheet.18888</title>
					<path
   d="m 32.16,119.85 c 0,2.7 -7.23,4.86 -16.11,4.86 -8.89,0 -16.05,-2.16 -16.05,-4.86 0,-2.69 7.16,-4.86 16.05,-4.86 8.88,0 16.11,2.2 16.11,4.86 z"
   class="st3"
   id="path38"
   inkscape:connector-curvature="0"
   style="fill:#50e6ff;stroke:none;stroke-width:34;stroke-linecap:butt" />
				</g>
				<g
   id="shape18889-11"
   transform="translate(8.28844,-44.8153)">
					<title
   id="title41">Sheet.18889</title>
					<path
   d="M 12.73,120.98 A 39.7845,39.9246 -180 0 0 0,122.81 a 37.298,37.4293 -180 0 0 12.76,1.9 37.298,37.4293 -180 0 0 12.77,-1.9 39.7845,39.9246 -180 0 0 -12.8,-1.83 z"
   class="st4"
   id="path43"
   inkscape:connector-curvature="0"
   style="fill:#198ab3;stroke:none;stroke-width:34;stroke-linecap:butt" />
				</g>
				<g
   id="shape18890-13"
   transform="translate(4.8736,-15.4042)">
					<title
   id="title46">Sheet.18890</title>
					<path
   d="m 29.08,118.72 v -11.25 h -3.09 v 13.78 h 8.16 v -2.53 z M 5.37,113.16 a 6.36552,6.38793 0 0 1 -1.69,-1.03 1.45877,1.4639 0 0 1 -0.27,-1.06 1.25984,1.26428 0 0 1 0.54,-1.03 2.38707,2.39548 0 0 1 1.39,-0.37 5.53668,5.55617 0 0 1 3.31,0.97 v -2.87 A 8.85205,8.88322 -180 0 0 5.34,107.24 5.76875,5.78907 -180 0 0 1.36,108.41 3.74637,3.75957 -180 0 0 0,111.4 c 0,1.7 1.06,3.03 3.32,4.03 a 9.61459,9.64844 0 0 1 2.02,1.19 1.32615,1.33082 0 0 1 0.53,1.07 1.25984,1.26428 0 0 1 -0.53,1.03 2.48653,2.49529 0 0 1 -1.49,0.4 5.3046,5.32328 0 0 1 -3.75,-1.5 v 3.1 a 7.59221,7.61894 -180 0 0 3.55,0.76 6.63075,6.6541 -180 0 0 3.91,-1.06 3.64691,3.65975 -180 0 0 1.42,-3.06 3.31538,3.32705 -180 0 0 -0.82,-2.33 8.02321,8.05146 -180 0 0 -2.79,-1.87 z m 17.24,5.23 a 7.9569,7.98492 -180 0 0 1.09,-4.23 7.69167,7.71875 -180 0 0 -0.82,-3.66 6.00083,6.02196 -180 0 0 -2.32,-2.49 6.63075,6.6541 -180 0 0 -3.32,-0.87 7.22752,7.25297 -180 0 0 -3.61,0.9 6.19975,6.22158 -180 0 0 -2.42,2.56 7.99005,8.01819 -180 0 0 -0.87,3.83 7.49275,7.51913 -180 0 0 0.8,3.49 6.06714,6.0885 -180 0 0 2.25,2.5 6.63075,6.6541 -180 0 0 3.32,0.96 l 2.82,3.33 h 3.94 l -3.98,-3.69 a 6.00083,6.02196 -180 0 0 3.12,-2.63 z m -3.08,-0.87 a 3.31538,3.32705 0 0 1 -5.07,0 5.00622,5.02384 0 0 1 -0.93,-3.32 4.90676,4.92403 0 0 1 0.96,-3.33 3.05015,3.06088 0 0 1 2.58,-1.23 2.95068,2.96107 0 0 1 2.49,1.23 5.37091,5.38982 0 0 1 0.9,3.33 4.84045,4.85749 0 0 1 -0.93,3.42 z"
   class="st5"
   id="path48"
   inkscape:connector-curvature="0"
   style="fill:#f2f2f2;stroke:none;stroke-width:34;stroke-linecap:butt" />
				</g>
				<g
   id="shape18891-15"
   transform="translate(35.143)">
					<title
   id="title51">Sheet.18891</title>
					<path
   d="m 12.3,124.58 0.8,-2.63 1.55,-0.9 2.69,1.2 1.72,-1.77 v -0.2 l -1.22,-2.36 0.73,-1.66 2.68,-0.97 h 0.3 v -2.43 h -0.33 l -2.65,-0.79 -0.87,-1.53 1.16,-2.73 -1.75,-1.7 h -0.2 l -2.36,1.2 -1.62,-1 -1.06,-2.96 H 9.42 v 0.36 l -0.8,2.63 -1.69,0.74 -2.89,-1.34 -1.69,1.77 0.17,0.33 1.26,2.46 L 3.12,112 0,112.96 v 2.47 h 0.36 l 2.62,0.79 0.73,1.7 -1.29,2.86 1.76,1.73 0.3,-0.16 2.45,-1.27 1.69,0.67 1.13,2.96 h 2.42 z m -3.98,-7.86 a 3.52838,3.54081 0 1 1 4.94,-5.05 3.52838,3.54081 0 0 1 -4.94,5.05 z"
   class="st6"
   id="path53"
   inkscape:connector-curvature="0"
   style="fill:#949494;stroke:none;stroke-width:34;stroke-linecap:butt" />
				</g>
			</g>
		</g>
	</g>
</svg>

<?xml version="1.0" encoding="UTF-8" standalone="no"?>
<!DOCTYPE svg PUBLIC "-//W3C//DTD SVG 1.1//EN" "http://www.w3.org/Graphics/SVG/1.1/DTD/svg11.dtd">
<!-- Generated by Microsoft Visio, SVG Export SQL Server.svg Page-1 -->
<svg xmlns="http://www.w3.org/2000/svg" xmlns:xlink="http://www.w3.org/1999/xlink" xmlns:ev="http://www.w3.org/2001/xml-events"
		width="1.73185in" height="1.73206in" viewBox="0 0 124.693 124.709" xml:space="preserve" color-interpolation-filters="sRGB"
		class="st7">
	<style type="text/css">
	<![CDATA[
		.st1 {fill:url(#grad0-6);stroke:none;stroke-linecap:butt;stroke-width:34}
		.st2 {fill:#e8e8e8;stroke:none;stroke-linecap:butt;stroke-width:34}
		.st3 {fill:#50e6ff;stroke:none;stroke-linecap:butt;stroke-width:34}
		.st4 {fill:#198ab3;stroke:none;stroke-linecap:butt;stroke-width:34}
		.st5 {fill:#f2f2f2;stroke:none;stroke-linecap:butt;stroke-width:34}
		.st6 {fill:#949494;stroke:none;stroke-linecap:butt;stroke-width:34}
		.st7 {fill:none;fill-rule:evenodd;font-size:12px;overflow:visible;stroke-linecap:square;stroke-miterlimit:3}
	]]>
	</style>

	<defs id="Patterns_And_Gradients">
		<linearGradient id="grad0-6" x1="0" y1="0" x2="1" y2="0" gradientTransform="rotate(0 0.5 0.5)">
			<stop offset="0" stop-color="#005ba1" stop-opacity="1"/>
			<stop offset="0.07" stop-color="#0060a9" stop-opacity="1"/>
			<stop offset="0.36" stop-color="#0071c8" stop-opacity="1"/>
			<stop offset="0.52" stop-color="#0078d4" stop-opacity="1"/>
			<stop offset="0.64" stop-color="#0074cd" stop-opacity="1"/>
			<stop offset="0.82" stop-color="#006abb" stop-opacity="1"/>
			<stop offset="1" stop-color="#005ba1" stop-opacity="1"/>
		</linearGradient>
	</defs>
	<g>
		<title>Page-1</title>
		<g id="group18448-1" transform="translate(34,-34.0157)">
			<title>SQL Server.18448</title>
			<g id="group18449-2">
				<title>Sheet.18449</title>
				<g id="shape18450-3" transform="translate(0,-0.765221)">
					<title>Sheet.18450</title>
					<path d="M21.02 84.09 C9.42 84.09 0 80.76 0 76.43 L0 117.06 C0 121.25 9.25 124.64 20.72 124.71 L21.02 124.71
								 C32.62 124.71 42.04 121.38 42.04 117.06 L42.04 76.43 C42.04 80.66 32.62 84.09 21.02 84.09 Z"
							class="st1"/>
				</g>
				<g id="shape18451-7" transform="translate(0,-41.3885)">
					<title>Sheet.18451</title>
					<path d="M42.04 117.06 C42.04 121.28 32.62 124.71 21.02 124.71 C9.42 124.71 0 121.28 0 117.06 C0 112.83 9.42
								 109.4 21.02 109.4 C32.62 109.4 42.04 112.73 42.04 117.06 Z" class="st2"/>
				</g>
				<g id="shape18452-9" transform="translate(4.97306,-44.8153)">
					<title>Sheet.18452</title>
					<path d="M32.16 119.85 C32.16 122.55 24.93 124.71 16.05 124.71 C7.16 124.71 0 122.55 0 119.85 C0 117.16 7.16
								 114.99 16.05 114.99 C24.93 114.99 32.16 117.19 32.16 119.85 Z" class="st3"/>
				</g>
				<g id="shape18453-11" transform="translate(8.28844,-44.8153)">
					<title>Sheet.18453</title>
					<path d="M12.73 120.98 A39.7845 39.9246 -180 0 0 0 122.81 A37.298 37.4293 -180 0 0 12.76 124.71 A37.298 37.4293
								 -180 0 0 25.53 122.81 A39.7845 39.9246 -180 0 0 12.73 120.98 Z" class="st4"/>
				</g>
				<g id="shape18454-13" transform="translate(4.8736,-15.4042)">
					<title>Sheet.18454</title>
					<path d="M29.08 118.72 L29.08 107.47 L25.99 107.47 L25.99 121.25 L34.15 121.25 L34.15 118.72 L29.08 118.72 ZM5.37
								 113.16 A6.36552 6.38793 0 0 1 3.68 112.13 A1.45877 1.4639 0 0 1 3.41 111.07 A1.25984 1.26428 0 0
								 1 3.95 110.04 A2.38707 2.39548 0 0 1 5.34 109.67 A5.53668 5.55617 0 0 1 8.65 110.64 L8.65 107.77
								 A8.85205 8.88322 -180 0 0 5.34 107.24 A5.76875 5.78907 -180 0 0 1.36 108.41 A3.74637 3.75957 -180
								 0 0 0 111.4 C0 113.1 1.06 114.43 3.32 115.43 A9.61459 9.64844 0 0 1 5.34 116.62 A1.32615 1.33082
								 0 0 1 5.87 117.69 A1.25984 1.26428 0 0 1 5.34 118.72 A2.48653 2.49529 0 0 1 3.85 119.12 A5.3046
								 5.32328 0 0 1 0.1 117.62 L0.1 120.72 A7.59221 7.61894 -180 0 0 3.65 121.48 A6.63075 6.6541 -180
								 0 0 7.56 120.42 A3.64691 3.65975 -180 0 0 8.98 117.36 A3.31538 3.32705 -180 0 0 8.16 115.03 A8.02321
								 8.05146 -180 0 0 5.37 113.16 ZM22.61 118.39 A7.9569 7.98492 -180 0 0 23.7 114.16 A7.69167 7.71875
								 -180 0 0 22.88 110.5 A6.00083 6.02196 -180 0 0 20.56 108.01 A6.63075 6.6541 -180 0 0 17.24 107.14
								 A7.22752 7.25297 -180 0 0 13.63 108.04 A6.19975 6.22158 -180 0 0 11.21 110.6 A7.99005 8.01819 -180
								 0 0 10.34 114.43 A7.49275 7.51913 -180 0 0 11.14 117.92 A6.06714 6.0885 -180 0 0 13.39 120.42 A6.63075
								 6.6541 -180 0 0 16.71 121.38 L19.53 124.71 L23.47 124.71 L19.49 121.02 A6.00083 6.02196 -180 0 0
								 22.61 118.39 ZM19.53 117.52 A3.31538 3.32705 0 0 1 14.46 117.52 A5.00622 5.02384 0 0 1 13.53 114.2
								 A4.90676 4.92403 0 0 1 14.49 110.87 A3.05015 3.06088 0 0 1 17.07 109.64 A2.95068 2.96107 0 0 1 19.56
								 110.87 A5.37091 5.38982 0 0 1 20.46 114.2 A4.84045 4.85749 0 0 1 19.53 117.62 L19.53 117.52 Z"
							class="st5"/>
				</g>
				<g id="shape18455-15" transform="translate(35.143,0)">
					<title>Sheet.18455</title>
					<path d="M12.3 124.58 L13.1 121.95 L14.65 121.05 L17.34 122.25 L19.06 120.48 L19.06 120.28 L17.84 117.92 L18.57
								 116.26 L21.25 115.29 L21.55 115.29 L21.55 112.86 L21.22 112.86 L18.57 112.07 L17.7 110.54 L18.86
								 107.81 L17.11 106.11 L16.91 106.11 L14.55 107.31 L12.93 106.31 L11.87 103.35 L9.42 103.35 L9.42
								 103.71 L8.62 106.34 L6.93 107.08 L4.04 105.74 L2.35 107.51 L2.52 107.84 L3.78 110.3 L3.12 112 L0
								 112.96 L0 115.43 L0.36 115.43 L2.98 116.22 L3.71 117.92 L2.42 120.78 L4.18 122.51 L4.48 122.35 L6.93
								 121.08 L8.62 121.75 L9.75 124.71 L12.17 124.71 L12.3 124.58 ZM8.32 116.72 A3.52838 3.54081 0 1 1
								 13.26 111.67 A3.52838 3.54081 0 0 1 8.32 116.72 Z" class="st6"/>
				</g>
			</g>
		</g>
	</g>
</svg>
